src/img/c-card_javascript.svg

<svg xmlns="http://www.w3.org/2000/svg" viewBox="0 0 64 64"><defs><style>.cls-1,.cls-5{fill:none;}.cls-2{fill:#fff;}.cls-2,.cls-5{stroke:#038ea5;stroke-miterlimit:10;}.cls-3{fill:#038ea5;}.cls-4{fill:#cacaca;}.cls-6{fill:#5d9b99;}</style></defs><title>c-card_javascript</title><g id="レイヤー_2" data-name="レイヤー 2"><g id="c-card_javascript"><rect class="cls-1" width="64" height="64"/><path class="cls-2" d="M43.28,31.5h0c-3.17,0-5.76-5.16-5.76-11.5,0-.17,0-.33,0-.5h12c-.13-6.67-2.87-12-6.24-12H20.47C17,7.5,14.21,13.1,14.21,20S17,32.48,20.45,32.5h0c3.17,0,5.76,5.16,5.76,11.5,0,.17,0,.33,0,.5h-12c.13,6.67,2.87,12,6.24,12H43.26c3.46,0,6.26-5.6,6.26-12.5S46.73,31.52,43.28,31.5Z"/><path class="cls-3" d="M43.55,31.5h0c-3.17,0-5.76-5.16-5.76-11.5S40.37,8.5,43.54,8.5s5.61,4.89,5.74,11h.5c-.13-6.67-2.87-12-6.24-12S37,13.1,37,20s3.08,12.48,6.53,12.5h0c3.17,0,5.76,5.16,5.76,11.5s-2.58,11.5-5.76,11.5-5.61-4.89-5.74-11h-.5c.13,6.67,2.87,12,6.24,12s6.26-5.6,6.26-12.5S47,31.52,43.55,31.5Z"/><path class="cls-4" d="M37.8,19.5H49.3C49.3,14.25,46.73,8,43.55,8S37.8,14.25,37.8,19.5Z"/><line class="cls-5" x1="25.93" y1="44.5" x2="37.78" y2="44.5"/><rect class="cls-6" x="18.92" y="11.15" width="16.29" height="2"/><rect class="cls-6" x="18.92" y="26.15" width="16.29" height="2"/><rect class="cls-6" x="25" y="31" width="13" height="2.15"/><rect class="cls-6" x="16.92" y="16.15" width="16.29" height="2"/><rect class="cls-6" x="16.92" y="21.15" width="16.29" height="2"/></g></g></svg>

<?xml version="1.0" encoding="utf-8"?>
<!-- Generator: Adobe Illustrator 21.1.0, SVG Export Plug-In . SVG Version: 6.00 Build 0)  -->
<svg version="1.1" xmlns="http://www.w3.org/2000/svg" xmlns:xlink="http://www.w3.org/1999/xlink" x="0px" y="0px"
	 viewBox="0 0 64 64" style="enable-background:new 0 0 64 64;" xml:space="preserve">
<style type="text/css">
	.st0{fill:#038EA5;}
	.st1{fill:#FFFFFF;}
	.st2{fill:none;}
	.st3{fill:#CACACA;}
	.st4{fill:#5D9B99;}
	.st5{fill:none;stroke:#038EA5;stroke-width:3;stroke-miterlimit:10;}
	.st6{fill:#038EA5;stroke:#CACACA;stroke-miterlimit:10;}
	.st7{fill:#FFFFFF;stroke:#038EA5;stroke-miterlimit:10;}
	.st8{fill:none;stroke:#038EA5;stroke-miterlimit:10;}
	.st9{clip-path:url(#SVGID_2_);fill:#038EA5;}
	.st10{fill:#CECECE;}
</style>
<g id="nextarrow">
</g>
<g id="prevarrow">
</g>
<g id="outerlink">
</g>
<g id="scheduling">
</g>
<g id="wireframe">
</g>
<g id="definition">
</g>
<g id="version">
</g>
<g id="taskrunner">
</g>
<g id="cms">
</g>
<g id="javascript">
	<rect class="st2" width="64" height="64"/>
	<path class="st7" d="M43.3,31.5C43.3,31.5,43.3,31.5,43.3,31.5c-3.2,0-5.8-5.2-5.8-11.5c0-0.2,0-0.3,0-0.5h12
		c-0.1-6.7-2.9-12-6.2-12c0,0-22.8,0-22.8,0c-3.5,0-6.3,5.6-6.3,12.5c0,6.9,2.8,12.5,6.2,12.5l0,0c3.2,0,5.8,5.2,5.8,11.5
		c0,0.2,0,0.3,0,0.5h-12c0.1,6.7,2.9,12,6.2,12c0,0,22.8,0,22.8,0c3.5,0,6.3-5.6,6.3-12.5C49.5,37.1,46.7,31.5,43.3,31.5z"/>
	<g>
		<path class="st0" d="M43.5,31.5L43.5,31.5c-3.2,0-5.8-5.2-5.8-11.5s2.6-11.5,5.8-11.5c3.1,0,5.6,4.9,5.7,11h0.5
			c-0.1-6.7-2.9-12-6.2-12C40.1,7.5,37,13.1,37,20c0,6.9,3.1,12.5,6.5,12.5l0,0c3.2,0,5.8,5.2,5.8,11.5s-2.6,11.5-5.8,11.5
			c-3.1,0-5.6-4.9-5.7-11h-0.5c0.1,6.7,2.9,12,6.2,12c3.5,0,6.3-5.6,6.3-12.5C49.8,37.1,47,31.5,43.5,31.5z"/>
	</g>
	<path class="st3" d="M37.8,19.5h11.5c0-5.2-2.6-11.5-5.8-11.5S37.8,14.3,37.8,19.5z"/>
	<line class="st8" x1="25.9" y1="44.5" x2="37.8" y2="44.5"/>
	<rect x="18.9" y="11.2" class="st4" width="16.3" height="2"/>
	<rect x="18.9" y="26.2" class="st4" width="16.3" height="2"/>
	<rect x="25" y="31" class="st4" width="13" height="2.2"/>
	<rect x="16.9" y="16.2" class="st4" width="16.3" height="2"/>
	<rect x="16.9" y="21.2" class="st4" width="16.3" height="2"/>
</g>
<g id="css">
</g>
<g id="html">
</g>
<g id="sorting">
</g>
<g id="leadership">
</g>
<g id="communication">
</g>
<g id="tone_x26_manner">
</g>
<g id="guide">
</g>
</svg>
